invoice-text-multiple-outline.svg

<svg fill="currentColor" viewBox="0 0 24 24"><path d="M2 2v15h2V4h13V2zm8 8h7v2h-7zm5 4h-5v2h5zm3.5 6.32L21 22V6H6v16l2.5-1.68L11 22l2.5-1.68L16 22zM19 8v9.57l-3 2.02-2.5-1.69-2.5 1.69-3-2.02V8z"/></svg>

<svg  viewBox="0 0 24 24" fill="currentColor"><path  d="M2 2V17H4V4H17V2H2M10 10H17V12H10V10M15 14H10V16H15V14M18.5 20.32L21 22V6H6V22L8.5 20.32L11 22L13.5 20.32L16 22L18.5 20.32M19 8V17.57L16 19.59L13.5 17.9L11 19.59L8 17.57V8H19Z"/></svg>
